X: 37139
T: Single Again
R: reel
M: 4/4
K: Gmajor
|GABG F2DE|_F2_F_F EDCD|
GABG F2DE|_FEDC B,G,G,B,|
GABG F2DE|_F2_F_F EDCD|
DE_FE DCDG|FDCA,B, G,G,B,:|
GABG c2Bc|d2dc BGG2|
GABG c2Bc|d2dc B2BA|
GABG c2Bc|d2dc BGGA|
efgf edeg|dBAG cBAF:|

